!!!SOCIAL_FUNCTION:	songs used in treatment of the sick
!!!PDT:	1918

Specific Region: Dakotas, Minnesota, Montana, Nebraska
!!!REG: Dakotas and Montana
!!!LING_GROUP: Siouan
!!!LANG: Tone
!!!OTL@ENG: We Will Eat
!!!ONM: No. 83
**kern
*Imale
*clefF4
*k[f#]
*M2/4
*MM63
16.e
32e
=1
8.e
16e
4e
=2
8.e
16e
8.e
16B
=3
4B
[4B
=4
4B_
12B]
8e
24B
=5
8.B
16e
(16e
8.B)
=6
(12B
12A)
12A
(16B
8.A)
=7
8.G
16G
16E
8.E
=8
4.E
8E
=9
4G
(12G
12E)
12E
=10||
*M3/4
8.G
16A
(16A
8.G)
(12G
12E)
12E
=11||
*M2/4
4.E
16G
16G
=12
8.G
16A
(16A
8.G)
=13
(16G
16E)
16E
16E
(12G
12E)
[12E
=14
2E]
=15
4.E
16.e
32B
=16
8.B
16e
(16e
8.B)
=17
(12B
12A)
12A
(16B
8.A)
=18
8.G
16G
16E
8.E
=19
4.E
8E
=20
4G
(12G
12E)
12E
=21||
*M3/4
8.G
16A
(16A
8.G)
12G
12E
12E
=||
4.E
16G
16G
=22
8.G
16A
(16A
8.G)
=
(16G
16E)
16E
16E
=23
(12G
12E)
[12E
=
2E]
=24
4.E
==
*-
!!!CNT: Native American -- Sioux
!!!MRD: 1911/07//-1914///
!!!OCL: Frances Densmore
!!!YOR1: Teton Sioux Music, Bulletin 61,
!!!YOR2: Bureau of American Ethnology, Smithsonian Institution
!!!PPR: Government Printing Office
!!!PPP: Washington, D.C.
!!!PDT: 1918///
!!!ENC: Craig Stuart Sapp
!!!END: 2002/03/25/
!!!EEV: 2002/03/31/
!!!AGN: Song of Personal Dreams/Song Used in Treatment of the Sick
!!!MPN@@SIO: Wangbli'-waha'chungka
!!!MPN@ENG: Eagle Shield
!!!TXO: Teton Sioux
!!!MLC: Standing Rock Reservation, South Dakota, United States of America
!!!ARL: 45.9/-100.7#
!!!catalog: Catalogue No. 512
!!!PPG: 258
!!!EFL: 83/245
!!!VTS: 889998837
